X:1
T:Colnel Farquharson of Invercauld's
T:Colnel Farquharson of Invercauld's
T:Alexander Walker
C:Alexander Walker
L:1/8
M:4/4
K:Dmin
V:1 treble 
V:1
 A,>D (F/E/)D/C/ A<D F2 | A,>D (F/E/)D/C/ A<DF>d | f<ad>f e<gc<d | f>de>c d<D D :| e | %5
 f>dA>d F>dE>d | A>cG>c E<CC>e | f<dA>d F>dE>d | f>ag>e f<d d>e | f>dA>d F>dE>d | A>cG>c E<CC>E | %11
 D<A,D>E F>G A>a | f>de>c d<D D || %13

